X:2632
T:Captain Ross
R:Reel
O:England
M:2/4
N:also in CMTB
A:Lancashire
B:Winder
K:G
D6 B2 | A3G E2A2 | G2GG B2G2 | d2G2 B2G2 |\
D6 B2 | A3G E2e2 | d2ef g2B2 | A4 G4 :|*
|:d2ef g2B2 | A3G E2e2 | d2ef g2d2 | e2d2 g2d2 |\
e3g d2B2 | A3G E2e2 | d2ef g2B2 | A4 G4 :|**


